svg/icons/src/icon-appointment.svg

<?xml version="1.0" encoding="UTF-8"?>
<svg width="32px" height="32px" viewBox="0 0 32 32" version="1.1" xmlns="http://www.w3.org/2000/svg" xmlns:xlink="http://www.w3.org/1999/xlink">
    <!-- Generator: Sketch 52.5 (67469) - http://www.bohemiancoding.com/sketch -->
    <title>icon-appointment</title>
    <desc>Created with Sketch.</desc>
    <defs>
        <path d="M26,24 C26,25.105 25.105,26 24,26 L8,26 C6.895,26 6,25.105 6,24 L6,12 L26,12 L26,24 Z M24,4 C26.209,4 28,5.791 28,8 L28,12 L28,24 C28,26.209 26.209,28 24,28 L8,28 C5.791,28 4,26.209 4,24 L4,12 L4,8 C4,5.791 5.791,4 8,4 L24,4 Z M20.5,23 C21.881,23 23,21.881 23,20.5 C23,19.119 21.881,18 20.5,18 C19.119,18 18,19.119 18,20.5 C18,21.881 19.119,23 20.5,23 Z" id="path-1"></path>
    </defs>
    <g id="icon-appointment" stroke="none" stroke-width="1" fill="none" fill-rule="evenodd">
        <mask id="mask-2" fill="white">
            <use xlink:href="#path-1"></use>
        </mask>
        <use id="Mask" fill="#2333FF" xlink:href="#path-1"></use>
    </g>
</svg>

<svg height="32" width="32" xmlns="http://www.w3.org/2000/svg"><path d="M26 24a2 2 0 0 1-2 2H8a2 2 0 0 1-2-2V12h20zM24 4a4 4 0 0 1 4 4v16a4 4 0 0 1-4 4H8a4 4 0 0 1-4-4V8a4 4 0 0 1 4-4zm-3.5 19a2.5 2.5 0 1 0 0-5 2.5 2.5 0 0 0 0 5z" fill="#2333ff" fill-rule="evenodd"/></svg>
